!! 00000] TT[WS
!!!OTL: Guan hua
!!!ARE: Asia, China,ÿShanxi Wutai
!! Ethnic Group: Han
!! WI, 232
!!!SCT: J0278
!!!YEM: Copyright 1995, estate of Helmut Schaffrath.
**kern
*ICvox
*Ivox
*M2/4
*k[f#]
*G:
{8r
4dd
8ee
=1
8dd
8b
16dd
16a
8r
=2
8r
8dd
8b
8b
=3
4.dd
8dd}
=4
{8b
8dd
8dd
8g
=5
4a
8a
8f#
=6
8a
8e
4d}
=7
{8f#
16f#
16g
4a
=8
8f#
16f#
16g
4a
=9
8f#
8g
8f#
8g
=10
8f#
8g
8a
8a}
=11
{8r
8ee
8dd
8ee
=12
8dd
8ee
8dd
8b
=13
8dd
16a
16a
8b
16dd
16dd
=14
8g
8e
4d}
==
!!!AGN: Xiaodiao. Fengsuge
!!!ONB: ESAC (Essen Associative Code) Database: CHINA
!!!AMT: simple duple
!!!AIN: vox
!!!EED: Helmut Schaffrath
!!!EEV: 1.0
*-
